X:119
T:June Apple
M:4/4
L:1/8
K:A Mix
eg |: ageg ageg | aged cdef | gfeg gfef | gagf e2 eg | 
   | ageg ageg | aged cBAA | G2 GA BA G2 |1 A3 B A2 eg :|2 A3 B A2 ed |
   |:c2 cB A2 AB | c2 cd e2 A2 | G2 A2 B c3 | d3 e d4 |
   | cdcB A2 AB | cBcd e2 A2 | GFGA BA G2 |1 A3 B A2 ed :|2 A6 eg|
